images/icon-talks.svg

<svg height="19" viewBox="0 0 20 19" width="20" xmlns="http://www.w3.org/2000/svg"><g fill="none" fill-rule="evenodd"><path d="m-2-3h24v24h-24z"/><g fill-rule="nonzero" transform=""><path d="m20 4v-3c0-.552-.447-1-1-1h-18c-.553 0-1 .448-1 1v3c0 .552.447 1 1 1v10h-1v2h9v2h2v-2h9v-2h-1v-10c.553 0 1-.448 1-1zm-18-2h16v1h-16zm15 13h-14v-10h14z" fill="#69c7f1"/><path d="m7 7v6l6-3z" fill="#b973ff"/></g></g></svg>

<svg height="19" viewBox="0 0 20 19" width="20" xmlns="http://www.w3.org/2000/svg"><g fill="none" fill-rule="evenodd"><path d="M-2-3h24v24H-2z"/><g fill-rule="nonzero"><path d="M20 4V1a1 1 0 0 0-1-1H1a1 1 0 0 0-1 1v3a1 1 0 0 0 1 1v10H0v2h9v2h2v-2h9v-2h-1V5a1 1 0 0 0 1-1zM2 2h16v1H2zm15 13H3V5h14z" fill="#69c7f1"/><path d="M7 7v6l6-3z" fill="#b973ff"/></g></g></svg>
